X: 382
T: Fengchui yunr san
L: 1/8
M: 2/4
K: F
A c d f/ d/ [I:setbarnb 1]| 
c4 | 
A c/ c/ d f/ d/ | 
c4 | 
Ac2d | 
f dc2 | 
c G c A/ G/ | 
F4 | 
A FG2 | 
G c A G/ F/ | 
GD2C | 
D4 | 
A FG2 | 
G c A G/ F/ | 
GD2C | 
D4 |]

@@@ Tune index: 9256
